app/icons/svg/ic_settings.svg

<?xml version="1.0" encoding="UTF-8"?>
<svg width="24px" height="24px" viewBox="0 0 24 24" version="1.1" xmlns="http://www.w3.org/2000/svg" xmlns:xlink="http://www.w3.org/1999/xlink">
    <title>Icons/Bund/ic_settings</title>
    <g id="Icons/Bund/ic_settings" stroke="none" stroke-width="1" fill="none" fill-rule="evenodd">
        <path d="M9.82399999,16.067 L8.19999998,16.428 C8.01999998,16.196 7.81499998,15.989 7.59199998,15.808 L7.98099998,14.191 L6.60199998,13.605 L5.70999997,15.008 C5.42499997,14.972 5.13399997,14.969 4.84199997,15 L3.97399997,13.582 L2.58499996,14.143 L2.94599996,15.767 C2.71399996,15.947 2.50699996,16.151 2.32699996,16.375 L0.709999953,15.986 L0.12499995,17.365 L1.52799996,18.258 C1.49199996,18.543 1.48899996,18.835 1.52099996,19.126 L0.10299995,19.994 L0.663999952,21.383 L2.28799996,21.022 C2.46799996,21.254 2.67299996,21.461 2.89599996,21.642 L2.50699996,23.259 L3.88599997,23.845 L4.77799997,22.442 C5.06299997,22.478 5.35399997,22.481 5.64599997,22.45 L6.51399998,23.868 L7.90299998,23.307 L7.54199998,21.683 C7.77399998,21.503 7.98099998,21.298 8.16199998,21.075 L9.77899999,21.464 L10.364,20.085 L8.96099999,19.192 C8.99699999,18.907 8.99999999,18.615 8.96799999,18.324 L10.387,17.456 L9.82499999,16.067 L9.82399999,16.067 Z M5.80399997,20.114 C5.03699997,20.424 4.16399997,20.053 3.85399997,19.286 C3.54399996,18.519 3.91499997,17.646 4.68199997,17.336 C5.44899997,17.026 6.32199998,17.397 6.63199998,18.164 C6.94199998,18.931 6.57099998,19.804 5.80399997,20.114 Z M22.5,8.24999998 L23.828,7.25399998 C23.751,6.86199998 23.644,6.48099998 23.517,6.10899997 L21.871,5.89999997 L21.121,4.60099997 L21.77,3.08199996 C21.508,2.78299996 21.227,2.50199996 20.929,2.23999996 L19.401,2.87999996 L18.102,2.12999996 L17.904,0.486999951 C17.532,0.359999951 17.152,0.25199995 16.759,0.17399995 L15.75,1.49899996 L14.25,1.49899996 L13.254,0.17099995 C12.862,0.24799995 12.481,0.354999951 12.109,0.480999951 L11.9,2.12699996 L10.601,2.87699996 L9.08199999,2.22799996 C8.78299999,2.48999996 8.50199998,2.77099996 8.23999998,3.06899996 L8.87999999,4.59699997 L8.12999998,5.89599997 L6.48799998,6.09399997 C6.36099998,6.46599998 6.25199998,6.84599998 6.17499998,7.23799998 L7.49999998,8.24699998 L7.49999998,9.74699999 L6.17299998,10.743 C6.24999998,11.135 6.35799998,11.516 6.48399998,11.888 L8.12999998,12.097 L8.87999999,13.396 L8.23099998,14.915 C8.49299998,15.214 8.77399999,15.496 9.07199999,15.757 L10.6,15.117 L11.899,15.867 L12.097,17.51 C12.469,17.637 12.849,17.745 13.241,17.823 L14.25,16.498 L15.75,16.498 L16.746,17.825 C17.138,17.748 17.519,17.641 17.891,17.515 L18.1,15.869 L19.399,15.119 L20.918,15.768 C21.217,15.506 21.499,15.225 21.76,14.927 L21.12,13.399 L21.87,12.1 L23.513,11.902 C23.64,11.53 23.748,11.15 23.826,10.758 L22.501,9.74899999 L22.501,8.24899998 L22.5,8.24999998 Z M15,12.375 C13.136,12.375 11.625,10.864 11.625,8.99999999 C11.625,7.13599998 13.136,5.62499997 15,5.62499997 C16.864,5.62499997 18.375,7.13599998 18.375,8.99999999 C18.375,10.864 16.864,12.375 15,12.375 Z" id="Icon" fill="#454545"></path>
    </g>
</svg>

<svg xmlns="http://www.w3.org/2000/svg" viewBox="0 0 24 24"><g fill="none" fill-rule="evenodd"><path d="M0 0h24v24H0z"/><path fill="#454545" d="M9.824 16.067l-1.624.361a3.797 3.797 0 00-.608-.62l.389-1.617-1.379-.586-.892 1.403A3.758 3.758 0 004.842 15l-.868-1.418-1.389.561.361 1.624c-.232.18-.439.384-.619.608L.71 15.986l-.585 1.379 1.403.893a3.704 3.704 0 00-.007.868l-1.418.868.561 1.389 1.624-.361c.18.232.385.439.608.62l-.389 1.617 1.379.586.892-1.403c.285.036.576.039.868.008l.868 1.418 1.389-.561-.361-1.624c.232-.18.439-.385.62-.608l1.617.389.585-1.379-1.403-.893c.036-.285.039-.577.007-.868l1.419-.868-.562-1.389h-.001zm-4.02 4.047a1.498 1.498 0 11-1.122-2.778 1.498 1.498 0 011.122 2.778zM22.5 8.25l1.328-.996a8.782 8.782 0 00-.311-1.145L21.871 5.9l-.75-1.299.649-1.519a9.155 9.155 0 00-.841-.842l-1.528.64-1.299-.75-.198-1.643a8.904 8.904 0 00-1.145-.313L15.75 1.499h-1.5L13.254.171a8.94 8.94 0 00-1.145.31L11.9 2.127l-1.299.75-1.519-.649c-.299.262-.58.543-.842.841l.64 1.528-.75 1.299-1.642.198a8.774 8.774 0 00-.313 1.144L7.5 8.247v1.5l-1.327.996c.077.392.185.773.311 1.145l1.646.209.75 1.299-.649 1.519c.262.299.543.581.841.842l1.528-.64 1.299.75.198 1.643c.372.127.752.235 1.144.313l1.009-1.325h1.5l.996 1.327a8.94 8.94 0 001.145-.31l.209-1.646 1.299-.75 1.519.649c.299-.262.581-.543.842-.841l-.64-1.528.75-1.299 1.643-.198c.127-.372.235-.752.313-1.144l-1.325-1.009v-1.5l-.001.001zM15 12.375a3.375 3.375 0 110-6.75 3.375 3.375 0 010 6.75z"/></g></svg>
